images/Cli_xodus_1.svg

<svg width="125" height="35" viewBox="0 0 125 35" fill="none" xmlns="http://www.w3.org/2000/svg">
<path d="M83.0842 22.2265H79.6665V11.865H82.917C85.7845 11.865 87.9353 13.9897 87.9353 17.0695C87.9353 20.1255 85.8798 22.2265 83.0842 22.2265ZM82.9882 8.69017H75.8905V25.402H82.8448C88.1267 25.402 91.7833 21.964 91.7833 17.0457C91.7833 12.1038 88.1742 8.69017 82.9882 8.69017ZM105.284 18.4065C105.284 20.818 103.803 22.2747 101.556 22.2747C99.3097 22.2747 97.7327 20.818 97.7327 18.4065V8.69017H93.9565V18.4065C93.9565 22.8235 96.9198 25.5692 101.556 25.5692C106.169 25.5692 109.061 22.8235 109.061 18.4065V8.69017H105.284V18.4065ZM116.109 13.1066C116.109 12.1994 116.97 11.7458 118.236 11.7458C119.574 11.7458 121.677 12.4142 123.446 13.4649L124.904 10.337C123.231 9.2388 120.888 8.52295 118.547 8.52295C114.675 8.52295 112.07 10.4326 112.07 13.4649C112.07 19.3855 120.984 17.5475 120.984 20.6985C120.984 21.7253 120.052 22.2983 118.499 22.2983C116.73 22.2983 114.292 21.3193 112.572 19.7913L111.066 22.871C112.954 24.4707 115.703 25.5217 118.451 25.5217C122.156 25.5217 124.999 23.7545 124.999 20.4837C125.023 14.4671 116.109 16.1864 116.109 13.1066ZM54.6235 8.68988H50.1548L46.6413 13.799L43.152 8.68988H38.7547L44.347 16.8548L38.3483 25.4022H42.7697L46.6413 19.8395L50.5847 25.4022H55.1015L49.055 16.6878L54.6235 8.68988ZM64.4683 22.2747C61.6723 22.2747 59.3063 19.9827 59.3063 17.0457C59.3063 14.1094 61.6487 11.865 64.4683 11.865C67.2647 11.865 69.5348 14.1094 69.5348 17.0457C69.5348 19.9827 67.2647 22.2747 64.4683 22.2747ZM64.4208 8.57043C59.3063 8.57043 55.4347 12.1754 55.4347 17.0457C55.4347 21.8923 59.3063 25.5692 64.4208 25.5692C69.5348 25.5692 73.4065 21.8685 73.4065 17.0457C73.4065 12.1998 69.5348 8.57043 64.4208 8.57043Z" fill="#CCCCCC"/>
<path d="M25.5693 0L12.7847 8.52252V17.0457L25.5693 8.52252V0ZM0 17.0457L6.39203 21.3075L0 25.5692V34.0918L19.1767 21.3075L12.7847 17.0457L0 8.52252V17.0457ZM25.5693 34.0918V25.5692L19.1767 21.3075L15.6257 27.4625L25.5693 34.0918Z" fill="#CCCCCC"/>
</svg>

<?xml version="1.0" encoding="UTF-8" standalone="no"?><!DOCTYPE svg PUBLIC "-//W3C//DTD SVG 1.1//EN" "http://www.w3.org/Graphics/SVG/1.1/DTD/svg11.dtd"><svg width="100%" height="100%" viewBox="0 0 125 35" version="1.1" xmlns="http://www.w3.org/2000/svg" xmlns:xlink="http://www.w3.org/1999/xlink" xml:space="preserve" xmlns:serif="http://www.serif.com/" style="fill-rule:evenodd;clip-rule:evenodd;stroke-linejoin:round;stroke-miterlimit:2;"><path d="M83.084,22.227l-3.418,-0l0.001,-10.362l3.25,0c2.867,0 5.018,2.125 5.018,5.205c0,3.055 -2.055,5.157 -4.851,5.157Zm-0.096,-13.537l-7.097,0l-0.001,16.712l6.955,0c5.282,0 8.938,-3.438 8.938,-8.356c0,-4.942 -3.609,-8.356 -8.795,-8.356Zm22.296,9.717c0,2.411 -1.481,3.868 -3.728,3.868c-2.246,-0 -3.823,-1.457 -3.823,-3.868l-0,-9.717l-3.776,0l-0.001,9.717c0.001,4.416 2.964,7.162 7.6,7.162c4.613,0 7.505,-2.745 7.505,-7.162l0,-9.717l-3.777,0l0,9.717Zm10.825,-5.3c0,-0.908 0.861,-1.361 2.127,-1.361c1.338,-0 3.441,0.668 5.21,1.719l1.458,-3.128c-1.673,-1.098 -4.016,-1.814 -6.357,-1.814c-3.872,-0 -6.477,1.91 -6.477,4.942c0,5.921 8.914,4.083 8.914,7.234c0,1.026 -0.932,1.599 -2.485,1.599c-1.769,0 -4.207,-0.979 -5.927,-2.507l-1.506,3.08c1.888,1.6 4.637,2.651 7.385,2.651c3.705,-0 6.548,-1.767 6.548,-5.038c0.024,-6.017 -8.89,-4.298 -8.89,-7.377Zm-61.485,-4.417l-4.469,-0l-3.514,5.109l-3.489,-5.109l-4.397,-0l5.592,8.165l-5.999,8.547l4.422,0l3.871,-5.562l3.944,5.562l4.517,0l-6.047,-8.714l5.569,-7.998Zm9.844,13.585c-2.796,-0 -5.162,-2.292 -5.162,-5.229c0,-2.937 2.343,-5.181 5.162,-5.181c2.797,0 5.067,2.244 5.067,5.181c-0,2.937 -2.27,5.229 -5.067,5.229Zm-0.047,-13.705c-5.115,0 -8.986,3.605 -8.986,8.476c-0,4.846 3.871,8.523 8.986,8.523c5.114,0 8.986,-3.7 8.986,-8.523c-0.001,-4.846 -3.872,-8.476 -8.986,-8.476Z" style="fill:#b2b2b2;fill-rule:nonzero;"/><path d="M25.569,0l-12.784,8.523l-0,8.523l12.784,-8.523l0,-8.523Zm-25.569,17.046l6.392,4.262l-6.392,4.261l0,8.523l19.177,-12.784l-6.392,-4.262l-12.785,-8.523l0,8.523Zm25.569,17.046l0,-8.523l-6.392,-4.261l-3.551,6.154l9.943,6.63Z" style="fill:#b2b2b2;fill-rule:nonzero;"/></svg>
